X:6
T:Keperen schots                           %title
C:                           %composer
O:                           %origin
M:4/4                           % type of bar  4/4 or 3/4
L:1/8                           % length of shortest note
Q:                           %tempo  Q:1/4=80
K:C                           %key C  Cm
P:A
GF|:"C" E2G2"C"c2e2|"G"de fd "C"ec "C"de|"F"f2 fe "G"de fd|"C" e2 "C7" ed cB|
"F" A2c2 "G" Bc dB|"C" c2 G2 "F"A4|"G"G2 GG AG AB|1 "C" (c4c) z GF:|2 "C"(c4"C7"c) z g2||
P:B
|: "F"ag f2 a2 z a|"C"gf e2 g2 z g|"G" g2f2 "G7"fe f^f | "C" g2 e2 "C7" e3 g|
"F" ag f2 "F" a2za|"C" gf e2 "C" g2 zg| "G" ga gf "G7" e2 d2 |1"C"c6 "C7" g2:|2 "C" c6||
